svgs/AzBotServices.svg

<?xml version="1.0" encoding="utf-8"?>
<!-- Generator: Adobe Illustrator 21.0.0, SVG Export Plug-In . SVG Version: 6.00 Build 0)  -->
<svg version="1.1" id="Layer_1" xmlns="http://www.w3.org/2000/svg" xmlns:xlink="http://www.w3.org/1999/xlink" x="0px" y="0px"
	 width="50px" height="50px" viewBox="0 0 50 50" enable-background="new 0 0 50 50" xml:space="preserve">
<g>
	<g>
		<path fill="#0072C6" d="M25,1.1C11.8,1.1,1.1,11.8,1.1,25c0,13.2,10.7,23.9,23.9,23.9c13.2,0,23.9-10.7,23.9-23.9
			C48.9,11.8,38.2,1.1,25,1.1z M20,22.5c1.381,0,2.5,1.119,2.5,2.5c0,1.381-1.119,2.5-2.5,2.5c-1.381,0-2.5-1.119-2.5-2.5
			C17.5,23.619,18.619,22.5,20,22.5z M29,38H12.489C11.667,38,11,37.334,11,36.511V20h3v15h15V38z M30,27.5
			c-1.381,0-2.5-1.119-2.5-2.5c0-1.381,1.119-2.5,2.5-2.5c1.381,0,2.5,1.119,2.5,2.5C32.5,26.381,31.381,27.5,30,27.5z M39,30h-3V15
			H21v-3h16.511C38.334,12,39,12.667,39,13.489V30z"/>
	</g>
</g>
</svg>

<?xml version="1.0" encoding="UTF-8" standalone="no"?>
<!-- Generator: Adobe Illustrator 21.0.0, SVG Export Plug-In . SVG Version: 6.00 Build 0)  -->

<svg
   xmlns:dc="http://purl.org/dc/elements/1.1/"
   xmlns:cc="http://creativecommons.org/ns#"
   xmlns:rdf="http://www.w3.org/1999/02/22-rdf-syntax-ns#"
   xmlns:svg="http://www.w3.org/2000/svg"
   xmlns="http://www.w3.org/2000/svg"
   xmlns:sodipodi="http://sodipodi.sourceforge.net/DTD/sodipodi-0.dtd"
   xmlns:inkscape="http://www.inkscape.org/namespaces/inkscape"
   version="1.1"
   id="Layer_1"
   x="0px"
   y="0px"
   width="47.799999"
   height="47.799999"
   viewBox="0 0 47.799999 47.799999"
   enable-background="new 0 0 50 50"
   xml:space="preserve"
   sodipodi:docname="AzBotServices.svg"
   inkscape:version="0.92.4 (5da689c313, 2019-01-14)"><metadata
   id="metadata13"><rdf:RDF><cc:Work
       rdf:about=""><dc:format>image/svg+xml</dc:format><dc:type
         rdf:resource="http://purl.org/dc/dcmitype/StillImage" /></cc:Work></rdf:RDF></metadata><defs
   id="defs11" /><sodipodi:namedview
   pagecolor="#ffffff"
   bordercolor="#666666"
   borderopacity="1"
   objecttolerance="10"
   gridtolerance="10"
   guidetolerance="10"
   inkscape:pageopacity="0"
   inkscape:pageshadow="2"
   inkscape:window-width="713"
   inkscape:window-height="543"
   id="namedview9"
   showgrid="false"
   inkscape:zoom="4.72"
   inkscape:cx="23.9"
   inkscape:cy="23.9"
   inkscape:window-x="0"
   inkscape:window-y="0"
   inkscape:window-maximized="0"
   inkscape:current-layer="Layer_1" />
<g
   id="g6"
   transform="translate(-1.1,-1.1)">
	<g
   id="g4">
		<path
   d="M 25,1.1 C 11.8,1.1 1.1,11.8 1.1,25 1.1,38.2 11.8,48.9 25,48.9 38.2,48.9 48.9,38.2 48.9,25 48.9,11.8 38.2,1.1 25,1.1 Z m -5,21.4 c 1.381,0 2.5,1.119 2.5,2.5 0,1.381 -1.119,2.5 -2.5,2.5 -1.381,0 -2.5,-1.119 -2.5,-2.5 0,-1.381 1.119,-2.5 2.5,-2.5 z M 29,38 H 12.489 C 11.667,38 11,37.334 11,36.511 V 20 h 3 v 15 h 15 z m 1,-10.5 c -1.381,0 -2.5,-1.119 -2.5,-2.5 0,-1.381 1.119,-2.5 2.5,-2.5 1.381,0 2.5,1.119 2.5,2.5 0,1.381 -1.119,2.5 -2.5,2.5 z M 39,30 H 36 V 15 H 21 V 12 H 37.511 C 38.334,12 39,12.667 39,13.489 Z"
   id="path2"
   inkscape:connector-curvature="0"
   style="fill:#0072c6" />
	</g>
</g>
</svg>
